X:1579
T:The Wicklow Hornpipe
R:Hornpipe
N:"Collected by Ennis"
B:O'Neill's 1579
Z:Transcribed by Michael D. Long, 9/28/98
M:C|
L:1/8
K:D
(FG) \
|ABAF DEFG|AGFD c2 3ABc|defd cAGF|DG 3AGFG DG G z|
ABAF DEFG|AGFD c2 3ABc|defd cAAG|F2 D2 D2 :|
|: z2 \
|f2 afd cAGF|D2 g2 g2 af|d3 e fdec|Addc Ad d z|
|efec ABcA|dcAB c2 3ABc|defd cAAG|F2 D2 D2 :|
